X:15
T:Cordal Jig/ Furze in Bloom
T:Cordal Jig, The
M:6/8
K:D
|:BAF !turn!E3|FEF DFA|BAF EFA|B{/d}BA Bcd|
BAF E3|FEF DFA|def edc|!turn!B3 Bcd:|:
d2e fed|c2d ecA|d2e fed|f2e fga|
dcd fed|cBc ecA|dcd fed|!turn!f3 fga:|
T:Furze in Bloom, The
f|:edB BAB|def e2f|edB BAF|AFE E2f|
edB BAB|gfe !turn!f3|edB BAF|1AFE E2f:|2AFE Bcd||
e3 efg|edB d2A|ded dfa|b2a faf|
!turn!e3 efg|edB d2f|edB BAF|1AFE Bcd:|2AFE E2f||

